projects/ccf-eui/src/assets/icons/organ-icons/organ-icon-placenta.svg

<svg width="64" height="64" viewBox="0 0 64 64" fill="currentColor" xmlns="http://www.w3.org/2000/svg">
<g clip-path="url(#clip0_1795_381)">
<path d="M59.9824 29.0819C58.0533 18.4381 51.842 28.1791 37.6176 33.3646C37.8296 33.6795 38.0204 33.9944 38.2536 34.2883C38.7623 34.7922 38.7835 35.359 38.5927 35.9258C38.8047 36.0098 39.0167 36.0728 39.2711 36.1567C40.9882 33.3016 44.0408 31.4542 47.3903 31.2232C47.4539 31.2232 47.5387 31.2232 47.6022 31.2232C47.9202 31.2862 48.111 31.5801 48.0474 31.895C47.9838 32.2099 47.687 32.3989 47.3691 32.3359C44.5284 32.5668 41.9634 34.0994 40.4582 36.4926C41.1154 36.5976 41.7726 36.6606 42.4297 36.6606C44.9524 36.6606 47.4751 36.3877 49.9341 35.8418C50.2309 35.7579 50.5489 35.9258 50.6549 36.2197C50.6549 36.2197 50.6549 36.2407 50.6549 36.2617C50.7185 36.5556 50.5489 36.8495 50.2521 36.9125C49.4889 36.8285 48.747 36.8285 47.9838 36.9125C46.7755 37.1434 44.592 37.7733 43.7441 37.9202C43.2141 38.0252 42.6841 38.0882 42.1329 38.0882H41.5606C40.6278 38.1302 39.6951 38.0462 38.7835 37.8362C38.3808 37.7103 37.9568 37.5633 37.5752 37.3954C37.3208 37.6473 37.0664 37.8782 36.8332 38.0672C37.0452 38.3191 37.2572 38.571 37.5116 38.8019C39.8859 40.6914 41.1366 43.6095 40.8398 46.6116C40.8822 47.6613 40.9458 48.8369 41.1154 50.3065C41.1366 50.6214 40.9034 50.8943 40.5854 50.9153C40.2675 50.9363 39.9919 50.7264 39.9283 50.4115C39.6739 48.9209 39.6739 47.7243 39.6739 46.6536C39.6739 45.8348 39.5891 45.0161 39.4831 44.2183L39.0591 42.7278C38.7411 41.993 38.3172 41.3212 37.766 40.7334C37.5752 43.2106 36.6001 45.5409 34.9677 47.4304C34.7346 47.6403 34.3742 47.6403 34.141 47.4304C33.9926 47.3254 33.9078 47.1574 33.929 46.9685C33.929 46.8425 33.9714 46.7376 34.0562 46.6536C35.8157 44.6802 36.7484 42.1399 36.6637 39.5157C36.3033 39.2638 36.0065 38.9699 35.7309 38.655C35.0737 38.8649 34.4166 38.9489 33.7382 38.8229C32.6571 39.8096 31.8303 41.0483 31.3851 42.4339L30.8764 44.8061C30.834 45.5829 30.834 46.3807 30.8764 47.1574C30.7704 50.3905 31.0248 53.6235 31.6183 56.7935C31.7031 57.1294 31.4911 57.4653 31.1308 57.5493C30.8128 57.6123 30.516 57.4234 30.4312 57.1294V56.7726C29.8376 54.4632 29.456 52.112 29.2865 49.7397C29.0321 50.0966 28.7565 50.4325 28.4809 50.7894C28.2053 51.1462 27.9721 51.5451 27.7601 51.881C27.1878 52.8257 27.0394 55.5129 25.5343 55.7229C25.1951 55.7229 24.5803 55.7229 24.5379 55.366C24.4955 55.0091 25.0679 54.6732 25.3011 54.4213C25.9158 53.7914 26.149 52.1539 26.7002 51.2302L26.8274 51.0413C25.4707 50.8943 24.1139 51.1043 22.8844 51.6711C22.5876 51.818 22.206 51.6711 22.0577 51.3982C21.9093 51.0833 22.0365 50.7054 22.3544 50.5374C23.8384 49.8656 25.4707 49.6137 27.0818 49.8026H27.6329C28.2477 49.0049 28.8201 48.2281 29.2229 47.7033V46.1917C29.2229 45.184 29.3713 44.1973 29.668 43.2316C30.092 42.077 30.622 40.9643 31.2579 39.8936C30.3252 40.4185 29.456 41.0483 28.6717 41.7831C26.4034 44.1553 23.0964 45.268 19.8318 44.7852H15.592C15.2316 44.7852 14.956 44.5122 14.956 44.1553C14.956 43.7984 15.2316 43.5255 15.592 43.5255C17.0123 43.4626 18.4115 43.4626 19.8318 43.5255C20.8493 43.5255 23.4992 43.2106 23.4992 43.2106C24.6015 42.9167 25.6615 42.4549 26.6154 41.846C23.8808 41.4891 21.3581 40.2925 19.3442 38.4241C19.111 38.1721 19.111 37.7733 19.3442 37.5213C19.5986 37.2904 19.9802 37.2904 20.2346 37.5213C22.3544 39.5367 25.1527 40.6914 28.0993 40.7334C29.2653 39.6627 30.622 38.8229 32.0211 38.1301C31.8939 38.0462 31.7243 37.9832 31.6183 37.8572C31.4911 37.6473 31.6183 36.7446 31.3215 35.233L31.4911 35.128C31.4911 35.128 31.3851 35.149 31.3427 35.17C24.1351 36.6816 22.8208 35.254 9.88953 27.1924C2.23675 22.4269 1.74918 36.2617 4.58982 43.5465C7.74845 51.4612 10.6315 56.1427 18.9202 58.2421C25.0043 59.7117 35.6037 63.7005 41.9634 61.2022C47.5387 59.0399 50.6761 55.9328 55.7426 51.2302C61.9539 45.436 61.6147 38.0672 59.9824 29.0819Z" />
<path d="M59.622 11.0693C58.9013 9.47374 58.5833 7.73127 58.6893 5.98879C58.7105 5.10705 58.3501 4.24631 57.7141 3.6375C55.785 2.37787 53.4744 1.81104 51.1849 2.06297C50.3793 2.06297 49.7222 2.71377 49.7222 3.51153C49.7222 3.51153 49.7222 3.53253 49.7222 3.55352C49.7222 4.35128 50.4005 4.9601 51.2061 4.9391C51.2273 4.9391 51.2697 4.9391 51.2909 4.9391C52.7536 4.77116 54.2163 5.02308 55.5307 5.69488V5.88382C55.4035 8.04617 55.8062 10.2085 56.6754 12.1819C57.0146 12.8327 57.1842 13.5465 57.2054 14.2813C57.163 16.1287 54.1103 17.2624 52.1812 17.2624C51.1849 17.2624 50.6549 16.4017 49.6586 14.5542C49.277 13.7775 48.853 13.0427 48.3654 12.3289C46.9027 10.7754 44.6557 10.2295 42.6206 10.9013C39.6739 11.5101 36.4517 13.5045 35.9005 16.5906C35.6885 17.7033 35.3282 17.8082 35.201 17.8502C34.5014 17.9342 33.7806 17.8922 33.0811 17.7243C32.2119 17.5143 31.3216 17.4094 30.4312 17.4304C30.1768 17.4304 30.1557 17.4304 30.0709 17.2624C29.7317 16.0448 29.8589 14.7432 30.4312 13.6095C32.2331 12.4549 31.8516 11.0903 31.682 10.7124C30.7704 8.48704 26.0219 7.92021 23.054 8.36108C20.3618 8.86493 17.9875 10.3555 16.3976 12.5598C16.016 13.0007 15.6133 13.4206 15.1893 13.8194C12.9846 15.352 12.3698 18.3121 13.7902 20.5794C14.4261 22.1329 14.8289 23.7705 14.9985 25.429C15.0409 26.5206 15.5921 27.5493 16.4824 28.2001C18.3055 29.5227 21.0402 29.0399 23.2236 28.662C23.7748 28.557 24.326 28.494 24.8771 28.4521C25.8099 28.4521 25.8523 28.557 26.2339 29.5017C26.5518 31.1183 27.845 32.3779 29.4773 32.6718C31.6396 33.1336 33.1235 35.1071 32.9963 37.2904C33.1235 38.0252 34.5438 37.7733 35.3494 37.6053C36.1549 37.4374 37.4692 36.3877 37.4692 35.6529C37.4692 35.4849 36.8121 32.2729 30.9824 30.1735H30.6644C29.5833 29.9006 29.4349 29.3968 29.0957 28.536C28.5657 26.7096 26.785 25.5129 24.8771 25.6599C24.114 25.6809 23.3508 25.7858 22.6089 25.9328C21.2521 26.1637 19.0051 26.5626 18.2419 25.9328C18.2419 25.9328 17.9875 25.7649 17.9451 25.219C17.7543 23.3086 17.288 21.4402 16.546 19.6557C15.804 17.6823 15.5921 17.2624 17.182 16.0028C17.6907 15.5199 18.1783 15.0161 18.6447 14.4702C19.7682 12.8117 21.4853 11.6571 23.4568 11.2162C25.0891 10.9853 26.7426 11.1113 28.3113 11.5731C26.9758 13.4625 26.5942 15.8558 27.2726 18.0602C27.7602 19.5717 29.2865 20.5164 30.8764 20.3065C31.47 20.3065 32.0635 20.3485 32.6359 20.4744C33.8018 20.7474 35.0314 20.7474 36.1973 20.4744C37.7236 19.9496 38.7836 18.585 38.9108 16.9895C39.2076 15.31 41.3274 14.0504 43.2777 13.6515C44.7192 13.3576 45.6732 13.6515 45.864 13.8614C46.2668 14.4702 46.6483 15.1001 46.9663 15.7509C47.9415 17.5983 49.0862 19.9496 52.0116 20.0756C55.7638 20.3065 60.1096 17.9762 60.364 14.4702C60.3852 13.2946 60.1308 12.119 59.622 11.0693Z" />
</g>
<defs>
<clipPath id="clip0_1795_381">
<rect width="58" height="60"  transform="translate(3 2)"/>
</clipPath>
</defs>
</svg>

<svg xmlns="http://www.w3.org/2000/svg" width="64" height="64" fill="currentColor" viewBox="0 0 64 64"><g clip-path="url(#a)"><path d="M59.982 29.082c-1.929-10.644-8.14-.903-22.364 4.283.212.314.402.63.636.923.508.504.53 1.071.339 1.638.212.084.424.147.678.23 1.717-2.854 4.77-4.702 8.12-4.933h.211a.56.56 0 0 1 .445.672.564.564 0 0 1-.678.44c-2.84.232-5.406 1.764-6.91 4.158.656.105 1.314.168 1.97.168 2.523 0 5.046-.273 7.505-.82a.6.6 0 0 1 .72.379v.042a.536.536 0 0 1-.402.65 10.2 10.2 0 0 0-2.268 0c-1.209.231-3.392.861-4.24 1.008-.53.105-1.06.168-1.611.168h-.572a10.3 10.3 0 0 1-2.778-.252 12 12 0 0 1-1.208-.44c-.254.251-.509.482-.742.671.212.252.424.504.679.735 2.374 1.89 3.625 4.807 3.328 7.81.042 1.05.106 2.225.275 3.694a.57.57 0 0 1-.53.61.62.62 0 0 1-.657-.505c-.254-1.49-.254-2.687-.254-3.757 0-.82-.085-1.638-.19-2.436l-.425-1.49a6.9 6.9 0 0 0-1.293-1.995 11.57 11.57 0 0 1-2.798 6.697.62.62 0 0 1-.827 0 .49.49 0 0 1-.212-.462q0-.188.127-.314a10.2 10.2 0 0 0 2.608-7.138 5.2 5.2 0 0 1-.933-.861c-.657.21-1.314.294-1.993.168-1.08.987-1.908 2.225-2.353 3.61l-.509 2.373a22 22 0 0 0 0 2.351 44.5 44.5 0 0 0 .742 9.637c.085.335-.127.671-.487.755a.6.6 0 0 1-.7-.42v-.356a39.6 39.6 0 0 1-1.145-7.033c-.254.357-.53.692-.805 1.05-.276.356-.509.755-.72 1.091-.573.945-.722 3.632-2.227 3.842-.339 0-.954 0-.996-.357s.53-.693.763-.945c.615-.63.848-2.267 1.4-3.19l.126-.19a7.47 7.47 0 0 0-3.943.63c-.296.147-.678 0-.826-.273a.657.657 0 0 1 .296-.86 8.93 8.93 0 0 1 4.728-.735h.55c.616-.798 1.188-1.575 1.59-2.1v-1.511q.001-1.512.446-2.96a20 20 0 0 1 1.59-3.338 13.4 13.4 0 0 0-2.586 1.89c-2.269 2.371-5.576 3.484-8.84 3.001h-4.24a.62.62 0 0 1-.636-.63c0-.357.276-.63.636-.63 1.42-.062 2.82-.062 4.24 0 1.017 0 3.667-.314 3.667-.314a11.2 11.2 0 0 0 3.116-1.365 13.17 13.17 0 0 1-7.27-3.422.67.67 0 0 1 0-.903.66.66 0 0 1 .89 0 11.65 11.65 0 0 0 7.864 3.212c1.166-1.07 2.523-1.91 3.922-2.603-.127-.084-.297-.147-.403-.273-.127-.21 0-1.112-.296-2.624l.17-.105s-.107.021-.15.042c-7.207 1.512-8.521.084-21.452-7.978-7.653-4.765-8.14 9.07-5.3 16.355 3.158 7.914 6.042 12.596 14.33 14.695 6.084 1.47 16.684 5.459 23.043 2.96 5.576-2.162 8.713-5.27 13.78-9.972 6.21-5.794 5.872-13.163 4.24-22.148"/><path d="M59.622 11.07a10.75 10.75 0 0 1-.933-5.081 3.17 3.17 0 0 0-.975-2.351 9.97 9.97 0 0 0-6.53-1.575c-.805 0-1.462.65-1.462 1.449v.042c0 .797.678 1.406 1.484 1.385h.085a7.4 7.4 0 0 1 4.24.756v.189a13.66 13.66 0 0 0 1.144 6.298c.34.65.51 1.364.53 2.1-.042 1.847-3.095 2.98-5.024 2.98-.996 0-1.526-.86-2.522-2.708a18 18 0 0 0-1.294-2.225c-1.462-1.554-3.71-2.1-5.744-1.428-2.947.61-6.17 2.604-6.72 5.69-.213 1.112-.573 1.217-.7 1.26-.7.083-1.42.041-2.12-.127a10.3 10.3 0 0 0-2.65-.294c-.254 0-.275 0-.36-.168a5.08 5.08 0 0 1 .36-3.652c1.802-1.155 1.42-2.52 1.251-2.898-.912-2.225-5.66-2.792-8.628-2.35-2.692.503-5.066 1.993-6.656 4.198q-.573.66-1.209 1.26a4.99 4.99 0 0 0-1.399 6.76A17.5 17.5 0 0 1 15 25.428a3.63 3.63 0 0 0 1.483 2.771c1.823 1.323 4.558.84 6.742.462a15 15 0 0 1 1.653-.21c.933 0 .975.105 1.357 1.05a4.03 4.03 0 0 0 3.243 3.17 4.46 4.46 0 0 1 3.52 4.618c.127.735 1.547.483 2.352.315.806-.168 2.12-1.217 2.12-1.952 0-.168-.657-3.38-6.487-5.48h-.318c-1.08-.272-1.23-.776-1.568-1.637-.53-1.826-2.311-3.023-4.219-2.876-.763.02-1.526.126-2.268.273-1.357.23-3.604.63-4.367 0 0 0-.255-.168-.297-.714a19.5 19.5 0 0 0-1.399-5.563c-.742-1.974-.954-2.394.636-3.653.509-.483.996-.987 1.463-1.533a7.86 7.86 0 0 1 4.812-3.254 11.5 11.5 0 0 1 4.854.357 7.44 7.44 0 0 0-1.038 6.487c.487 1.512 2.014 2.456 3.603 2.247.594 0 1.187.042 1.76.167a7.85 7.85 0 0 0 3.561 0 4.02 4.02 0 0 0 2.714-3.485c.297-1.679 2.416-2.939 4.367-3.338 1.441-.293 2.395 0 2.586.21.403.61.784 1.24 1.102 1.89.975 1.847 2.12 4.199 5.046 4.325 3.752.23 8.098-2.1 8.352-5.606a7.5 7.5 0 0 0-.742-3.4"/></g><defs><clipPath id="a"><path d="M3 2h58v60H3z"/></clipPath></defs></svg>
